!!!!SEGMENT: pl-kozmzk--mzk-m-159--044_walczynski-franciszek--praeludia-organi-op-5-allegro.krn
!!!cenid: 18xx:2787
!!!COM: Walczyński, Franciszek
!!!COM-rismid: pe30021989
!!!CDT: ~1852-1937
!!!CNT: Polish
!!!GTL: Praeludia organi op. 5
!!!OTL: 44. Allegro
!!!PDT: 1894
!!!AGN: Secular; Prelude
!!!SMS-siglum: PL-KOZmzk
!!!SMS-shelfmark: mzk/m/159
!!!SMS-shelfwork: 044 G
!!!SMS-variant:
!!!SMS-altvar:
!!!NIFC-rismid: 1001118859
!!!URL-scan: https://repozytorium.nifc.pl/islandora/object/pl-kozmzk%3A2265/datastream/PDF/view
!!!ONB-nifc: UWAGA: numeracja plików zgodna z numeracją źrodłową
!!!OMD:44. Allegro.
**kern	**kern	**dynam
*part2	*part1	*part1
*staff2	*staff1	*
*I"[Organo]	*	*
*clefF4	*clefG2	*
*k[b-e-]	*k[b-e-]	*
*g:	*g:	*
*M3/4	*M3/4	*
=1	=1	=1
*^	*^	*
!LO:TX:b:i:t=Ped.	!	!	!	!LO:DY:rj
(4g/	[2.G\ [2.GG\	([2.dd/	(4b-\	fp
4f#X/	.	.	4a\	.
4fn/	.	.	4a-X\	.
=2	=2	=2	=2	=2
2.e-/)	2.G\_ 2.GG\_	2dd/]	2.g\)	.
.	.	4cc/	.	.
=3	=3	=3	=3	=3
(2d/	2.G\_ 2.GG\_	2b-/	(2g\	.
4c/	.	4a/)	4f#X\	.
=4	=4	=4	=4	=4
2.B-/)	2.G\] 2.GG;\]	2.g;/	2.g\)	.
=5	=5	=5	=5	=5
!LO:TX:b:i:t=Man.	!	!	!	!
(2.c/	2.A\	(4f#X/	(2.d\	.
.	.	4g/	.	.
.	.	4a/	.	<
=6	=6	=6	=6	=6
4F#X/	2.D\	4d/	2.c\)	.
4G/	.	4en/	.	.
4A/)	.	4f#X/)	.	[
=7	=7	=7	=7	=7
(4B-/	(2G\	(2g/	4d\	f
4c/	.	.	4e-\	.
4A/	4F#X\	4a/	[4d\	.
=8	=8	=8	=8	=8
2.G/	4G\	2b-/	4d\]	.
.	4F\	.	[2g\	<
.	4E-\	4cc/	.	.
=9	=9	=9	=9	=9
2.A/)	2.D;\)	2.dd;/)	4g\]	.
.	.	.	4en\	.
.	.	.	4f#X;\	[
=10	=10	=10	=10	=10
2.r	(4D\	2.rg	2.r	p
.	4AA\	.	.	.
.	4C\	.	.	.
=11	=11	=11	=11	=11
2.r	2BB-\	2.rg	2.r	.
.	4GG\)	.	.	.
!!LO:LB:g=original
=12	=12	=12	=12	=12
(4d/	(2.FF#X\	2.rg	2.r	.
4A/	.	.	.	.
4c/	.	.	.	.
=13	=13	=13	=13	=13
2B-/	4GG\	2.rg	2.r	.
.	4AA\	.	.	.
4G/)	4BB-\)	.	.	.
=14	=14	=14	=14	=14
[2.G/	(2.BBn\	2.r	(4g\	p
.	.	.	4d\	.
.	.	.	4f\	.
=15	=15	=15	=15	=15
2.G/]	4C\	2.r	2e-\	.
.	4D\	.	.	.
.	4E-\)	.	4d\)	.
=16	=16	=16	=16	=16
(4A-X/	(4F\	2.r	(2.Bn\	.
4G/	4E-\	.	.	.
4F/	4D\	.	.	.
=17	=17	=17	=17	=17
2.G/)	2E-\	2.r	4c\	<
.	.	.	4d\	.
.	4C\)	.	4e-\)	[[
=18	=18	=18	=18	=18
(2.F#X/	[2.D\	(4dd/	[2.d\	f
.	.	4a/	.	.
.	.	4cc/	.	.
=19	=19	=19	=19	=19
4G/	2.D\]	2b-/	2.d\]	.
4A/	.	.	.	.
4B-/)	.	4g/)	.	.
=20	=20	=20	=20	=20
(4c/	(4C\	(4a/	(4e-\	p
4B-/	4D\	4g/	4.d\	>
4A/	4DD\	4f#X/	.	.
.	.	.	8c\	.
=21	=21	=21	=21	=21
2.G/)	4E-\	2.g/)	4B-\	]
.	4D\	.	4Bn\	.
.	4E-\)	.	4c\)	.
=22	=22	=22	=22	=22
([2.G/	(2.BBn\	(4gg/	[2.g\	f
.	.	4dd/	.	.
.	.	4ff/	.	.
!!LO:LB:g=original
=23	=23	=23	=23	=23
2G/]	4C\	2ee-/	2.g\]	.
.	4D\	.	.	.
4c/)	4E-\)	4cc/)	.	.
=24	=24	=24	=24	=24
(2.d/	(4G\	(2.bn/	[2.g\	.
.	4D\	.	.	.
.	4F\	.	.	.
=25	=25	=25	=25	=25
2.c/)	4E-\	2cc/	2.g\]	<
.	4D\	.	.	.
.	4C\)	4ee-/)	.	[
=26	=26	=26	=26	=26
(4A/	[2.D\	(4dd/	4f#X\	fp
2F#X/	.	4a/	[2d\	.
.	.	4cc/	.	.
=27	=27	=27	=27	=27
4G/	2.D\]	2b-/	2.d\]	.
4A/	.	.	.	.
4B-/)	.	4g/)	.	.
=28	=28	=28	=28	=28
(4c/	4C\	(4a/	4e-\	.
4B-/	2D\	4g/	4.d\	.
4A/	.	4f#X/	.	.
.	.	.	8c\	.
=29	=29	=29	=29	=29
2.G/)	2.E-\	[2.g/)	4B-\	.
.	.	.	4A\	.
.	.	.	4B-\	.
=30	=30	=30	=30	=30
!LO:TX:b:i:t=Ped.	!	!	!	!
(4G/	[2.GG\	2.g/_	(2.Bn\	fp <
4D/	.	.	.	.
4Fn/	.	.	.	.
=31	=31	=31	=31	=31
4E-/	2.GG\_	2.g/_	2c\	.
4D/	.	.	.	.
4C/	.	.	4e-\	[[
=32	=32	=32	=32	=32
*	*	*	*	*^
!	!	!LO:TX:a:i:t=rit.	!	!	!
2.BBn/	2.GG\_	2.g/_	4g\	>	.
.	.	.	4d\	.	.
.	.	.	4f\	.	.
=33	=33	=33	=33	=33	=33
!	!	!	!	!	!LO:DY:a
4C/	2.GG\_	2.g/_	2e-\	.	p
4D/	.	.	.	.	.
4E-/	.	.	4c\	]	.
*	*	*	*	*v	*v
=34	=34	=34	=34	=34
2.D/)	2.GG;\]	2.g;/]	2.Bn\)	] ppp
*v	*v	*	*	*
*	*v	*v	*
==	==	==
*-	*-	*-
!!!system-decoration: {(s1,s2)}
!!!EED: Andrzej Borzym
!!!EST: 2021-08-08
!!!ENC: Krzysztof Stępień
!!!END: 2021-07-26
